X:1
T:Title
%%score { ( 1 3 4 ) | ( 2 5 6 ) }
L:1/8
Q:1/4=100
M:4/4
K:Bb
V:1 treble nm="Grand Piano"
V:3 treble 
V:4 treble 
V:2 bass 
V:5 bass 
V:6 bass 
V:1
 [DF]3 [CE] [B,D]2 [DB]2 | [EB]2 A2 A4 | E3 D C2 G2 | [EG]2 [DF]2 [DF]4 | %4
w: Ira~B.~Wilson * * *||||
 [DF]3 [CE] [F,B,D]2 [DFB]2 | [CGB]2 [CFA]2 [CFA]4 | [Ac]3 [GB] [FA]2 [GB]2 |[M:7/8] [=EA]2 G2 F3 | %8
w: ||||
[M:1/4] D>E |[M:4/4] z2 B,>B, z z/ B/ [Ec]>[DB] | [EA]6[K:bass] z2 | %11
w: |||
 z2 A,>A, z z/[K:treble] F/ A>G |[M:3/4] [DF]6 |[M:1/4] D>E |[M:4/4] z2 B,>B, z z/ d/ [Ec]>[DB] | %15
w: ||||
 z2 B,2 B,2 [Ge]>[Ge] | d3 B A2 c2 | B2- [EB-]2 [DB]2 z2 |] %18
w: |||
V:2
 [B,,B,]3 [B,,B,] [B,,F,]2 [B,,F,]2 | [C,F,]2 [F,CE]2 [F,CE]4 | [F,A,C]3 [F,B,] [F,A,]2 [F,A,E]2 | %3
 [B,,B,]2 [B,,B,]2 [B,,B,]4 | [B,,B,]3 [B,,B,] B,,2 B,,2 | F,2 F,2 F,4 | %6
 [C,C]3 [C,C] [C,C]2 [C,C]2 |[M:7/8] [C,C]2 [C,B,C]2 [F,A,C]3 |[M:1/4] B,>C |[M:4/4] D6 z2 | %10
 [C,F,]2 C,2 C,2 A,>B, | C6 z2 |[M:3/4] B,,2 B,,2 B,,2 |[M:1/4] B,>C |[M:4/4] D6 z2 | %15
 [E,B,]2 E,2 E,2 [E,B,]>[E,B,] | [F,B,F]3 [F,DF] [F,CF]2 [F,A,E]2 | z2 G,2 F,2 z2 |] %18
V:3
 x8 | x8 | x8 | x8 | x8 | x8 | x8 |[M:7/8] x7 |[M:1/4] x2 |[M:4/4] F6 z2 | z2[K:bass] F,2 F,2 C>D | %11
 E6[K:treble] z2 |[M:3/4] B,2 B,2 B,2 |[M:1/4] x2 |[M:4/4] F6 z2 | [EG]6 z2 | x8 | [B,D]2 z2 z4 |] %18
V:4
 x8 | x8 | x8 | x8 | x8 | x8 | x8 |[M:7/8] x7 |[M:1/4] x2 |[M:4/4] z4 B,2 z2 | x2[K:bass] x6 | %11
 z4 A,2[K:treble] z2 |[M:3/4] x6 |[M:1/4] x2 |[M:4/4] z4 B,2 z2 | x8 | x8 | x8 |] %18
V:5
 x8 | x8 | x8 | x8 | x8 | x8 | x8 |[M:7/8] x7 |[M:1/4] x2 |[M:4/4] z2 B,,>B,, z z/ D/ [B,,F,]2 | %10
 x8 | z2 F,>F, z z/ D/ F>E |[M:3/4] x6 |[M:1/4] x2 |[M:4/4] z2 B,,>B,, z z/ F/ [B,,B,]2 | x8 | x8 | %17
 B,,6 z2 |] %18
V:6
 x8 | x8 | x8 | x8 | x8 | x8 | x8 |[M:7/8] x7 |[M:1/4] x2 |[M:4/4] z4 B,,2 z2 | x8 | %11
 z4 F,2 [F,A,]2 |[M:3/4] x6 |[M:1/4] x2 |[M:4/4] z4 B,,2 z2 | x8 | x8 | x8 |] %18

